X:1
T:The Boys Of Malin
R:reel
M:4/4
L:1/8
K:A
|:ABcd eAce|fedf edcB|ABcd eAce|1 fdBc ~d2cB:|2 fdBc defg|]
|aA~A2 cAce|~a2ag fefg|aA~A2 cAce|dcBc defg|
|aA~A2 cAce|~a2ag fefg|~a2ga faec|dcBc ~d2cB|
|:Aece Aece|Aece ~d2cB|Aece Aece|fdBc ~d2cB:|